X:129861723729269
T:5-5-6-6-3-8-10-4-7-2-10-3-6-10-5-3
%%setfont-1 Courier-Bold 8
T:$1K.516f::40:17:163:45:146:133:62:24:138:121:19:56:76:38:52:83::$0
T:$1Perm. No.: 129861723729269$0
M:3/8
L:1/8
Q:1/8=111
%%staves [1 2]
V:1 clef=treble
V:2 clef=bass
K:C
%1
[V:1]|: c/B/c/e/G/c/ |\
[V:2]|: [E,2C,2]z |\
%2
[V:1] c/G/c/e/G/c/ |\
[V:2] [G,2E,2]z |\
%3
[V:1] g/^f/g/d/B/G/ |\
[V:2] [D,2B,,2]z |\
%4
[V:1] c/B/c/G/E/C/ |\
[V:2] [G,2E,2]z |\
%5
[V:1] [d^F][^fd][af] |\
[V:2] C,C,C,   |\
%6
[V:1] dg/d/B/d/ |\
[V:2] [G,2B,,2]z |\
%7
[V:1] e/c/B/G/A/^F/ \
[V:2] C,D,D,, \
%8a
[V:1]|1 [g2d2B2G2]z :|2
[V:2]|1 G,,G,/=F,/E,/D,/ :|2
%8b
[V:1] [g2d2B2G2]z |:\
[V:2] G,,B,/G,/^F,/E,/ |:\
%9
[V:1] [^fdA]!trill!f2 |\
[V:2] D,,/D,/^C,/D,/^C,/D,/ |\
%10
[V:1] gb/g/d |\
[V:2] [G,2B,,2]z |\
%11
[V:1] e/c/eg |\
[V:2] [G,2C,2][E,C,] |\
%12
[V:1] d/B/Gz |\
[V:2] [G,2G,,2]G, |\
%13
[V:1] c'/b/c'/g/e/c/ |\
[V:2] [E,2C,2][G,C,] |\
%14
[V:1] cGe |\
[V:2] [E,/C,/]G,/[E,/C,/]G,/[E,/C,/]G,/ |\
%15
[V:1] (d/^c/)d/f/G/B/ |\
[V:2] F,2G, |\
%16
[V:1] c2z :|]
[V:2] C,G,,C,, :|]
